X: 8519
T: Creel Of Turf, The
R: jig
M: 6/8
K: Eminor
"Em"EBB BAG|"D"FEF AGF|"Em"EBB BAG|"D"FED "Em"E3|
EBB BAG|"D"FEF AGF|"Em"EGB "G"GBd|"D"AGF "Em"E3:|
"Em"Bee efg|"D"fdB AGF|"Em"Eee ege|"D"faf gfe|
"Em"Bee efg|"D"fdB AGF|EGB "G"GBd|"D"AGF "Em"E3:|

